X:310
T: WO SOLL ICH MICH HINKEHREN
N: Z0308
O: Europa, Mitteleuropa, Deutschland
R: Lyrisches Lied, Romanze, Verlassenheit
M: 2/4
L: 1/8
K: A
E | AB=cd | e2B
B | =cBAB | E3
E | AB=cd | e2B
B | =cBAB | E3
e | =fed=c | B3
e | =cABE | A3
e | =fed=c | B2B
e | =cABE | A3

@@@ Tune index: 10068
